X: 48
T:Coilsfield House
M:4/4
L:1/8
C:Nathaniel Gow
R:Slow Air
K:G
G/A/|"G"BD GB, G,3 A/B/|"C"c>A "G"BG "D"F<A D>c|"C"c/B/A/G/ "D"G/F/E/D/
"Em"G2 "C"EC|!
"G"B,G "D"A,F "G"GG, G,:|B/c/|"G"d>B dB"C" {cd}e2 "D"AB/c/|"G"dG"Em"FG "
C"
A/G/F/E/ "D"DB/c/|!
"G"d>edB "C"c/4d/4e3/2 "Am"e/4f/4g3/2|"D"f/g/a/g/ "D7"f/d/e/f/ "G"g2 G g
/a/|"G"{ga}bgdB "C"c/4d/4e3/2 "D"AB/c/|!
"G"dG"Em"FG "C"A/G/F/E/ "D"D{B}c|"G"BGDB, "C"CD/E/ "D"A, D/C/|"G"B,G "D"
A,
F
 "G"{F}GG, G,||
